!!!COM: Haydn, Franz Joseph
!!!CDT: 1732/3/31/-1809/5/31/
!!!CNT: Oesterreich
!!!OTL: String Quartet in D Major
!!!OPS: Opus 20
!!!ONM: No. 4
!!!OMD: Allegro di molto
!!!OMV: 1
!!!SCT: H III:34
!!!SCA: Thematisch-bibliographisches Werkevererzeichnis (A. van Hoboken)
!!!YOR: Altmann Edition
!!!ENC: Nestor Napoles
!!!YEC: Copyright (c) 2017 Universitat Pompeu Fabra
!!!YEM: Rights to all derivative editions reserved.
!!!YEM: Refer to licensing agreement for further details.
!!!YEN: Barcelona, Spain
**tshrm	**tsroot	**kern	**kern	**kern	**kern
*k[f#c#]	*k[f#c#]	*k[f#c#]	*k[f#c#]	*k[f#c#]	*k[f#c#]
*	*	*D:	*D:	*D:	*D:
*	*	*clefF4	*clefC3	*clefG2	*clefG2
*M3/4	*M3/4	*M3/4	*M3/4	*M3/4	*M3/4
*D:	*D:	*	*	*	*
I	D	4DD'/	4D'/	4d'/	4d'/
.	D	4DD'/	4D'/	4d'/	4d'/
.	D	4DD'/	4D'/	4d'/	4d'/
=2	=2	=2	=2	=2	=2
.	D	[2.DD/	2.D/	2.d/	2.d/
=3	=3	=3	=3	=3	=3
.	D	2.DD/_	[2.A/	2.c#/	2.g/
=4	=4	=4	=4	=4	=4
.	D	2.DD/]	4A/]	4d/	4f#/
IVc	G	.	4C#/	4g/	4b\
I	D	.	4D/	4f#/	4a/
=5	=5	=5	=5	=5	=5
.	D	4DD'/	4D'/	2f#/	2dd\
.	D	4DD'/	4D'/	.	.
.	D	4DD'/	4D'/	16a/LL	16cc#\LL
.	D	.	.	16g/	16b\
.	D	.	.	16f#/	16a\
.	D	.	.	16g/JJ	16b\JJ
=6	=6	=6	=6	=6	=6
.	D	4DD/	4D/	4f#/	4a/
.	D	4r	4r	4r	4r
.	r	4r	4r	4r	4r
=7	=7	=7	=7	=7	=7
.	D	4DD'/	4D'/	4d'/	4d'/
.	D	4DD'/	4D'/	4d'/	4d'/
.	D	4DD'/	4D'/	4d'/	4d'/
=8	=8	=8	=8	=8	=8
.	D	[2.DD/	2.D/	[2.d/	2.d/
=9	=9	=9	=9	=9	=9
!!linebreak:original
IVc	G	2.DD/_	2.G/	2.d/]	2.B/
=10	=10	=10	=10	=10	=10
I	D	2.DD/]	2F#/	4d/	4A/
.	D	.	.	4A/	4d/
.	D	.	4d\	4d/	4f#/
=11	=11	=11	=11	=11	=11
.	D	4AA/	[2.A/	2f#/	2a/
.	D	4BB/	.	.	.
V7b	A	4C#/	.	4e/	4g/
=12	=12	=12	=12	=12	=12
I	D	4D\	4A/]	4d/	4f#/
.	D	4r	4r	4r	4r
.	D	4r	4r	4r	4r
=13	=13	=13	=13	=13	=13
.	D	4DD'/	4D'/	4d'/	4d'/
.	D	4DD'/	4D'/	4d'/	4d'/
.	D	4DD'/	4D'/	4d'/	4d'/
=14	=14	=14	=14	=14	=14
.	D	[2.DD/	2.D/	2.d/	2.d/
=15	=15	=15	=15	=15	=15
.	D	2.DD/_	[2.A/	2.c#/	2.g/
=16	=16	=16	=16	=16	=16
.	D	2.DD/]	4A/]	4d/	4f#/
IVc	G	.	4C#/	4g/	4b\
I	D	.	4D/	4f#/	4a/
=17	=17	=17	=17	=17	=17
.	D	4DD'/	4D'/	2f#/	2dd\
.	D	4DD'/	4D'/	.	.
.	D	4DD'/	4D'/	16a/LL	16cc#\LL
.	D	.	.	16g/	16b\
.	D	.	.	16f#/	16a\
.	D	.	.	16g/JJ	16b\JJ
=18	=18	=18	=18	=18	=18
.	D	4DD/	4D/	4f#/	4a/
.	r	4r	4r	4r	4r
.	D	4r	4r	4r	4r
=19	=19	=19	=19	=19	=19
!!linebreak:original
ii	E	4EE'/	4E'/	4e'/	4e'/
.	E	4EE'/	4E'/	4e'/	4e'/
.	E	4EE'/	4E'/	4e'/	4e'/
=20	=20	=20	=20	=20	=20
.	E	2EE/	[2.E/	2e/	4e/
.	E	.	.	.	4g/
ii7d	E	4DD/	.	[4g/	4b\
=21	=21	=21	=21	=21	=21
V7b	A	2CC#/	4E/]	4g/]	[2.a/
.	A	.	4A'/	4e/	.
I	D	4DD/	4A'/	[4f#/	.
=22	=22	=22	=22	=22	=22
IV	G	2.GG/	2.B/	4f#/]	4a/]
.	G	.	.	4g/	4b\
iib	E	.	.	4e/	4g/
=23	=23	=23	=23	=23	=23
Ic	D	2.AA/	2A/	2d/	2f#/
V7	A	.	4G/	4c#/	8g/L
.	A	.	.	.	8e/J
=24	=24	=24	=24	=24	=24
vi	B	4BB/	4F#/	4d/	4d/
V	r	4r	4r	4r	4r
.	r	4r	4r	4r	4r
=25	=25	=25	=25	=25	=25
Chr	C	4CCn'/	4Cn'/	4cn'/	4cn'/
.	C	4CC'/	4C'/	4c'/	4c'/
.	C	4CC'/	4C'/	4c'/	4c'/
=26	=26	=26	=26	=26	=26
V7b/IV	D	2FF#/	2.D/	2A/	2cn/
IV	G	4GG/	.	4G/	4B/
=27	=27	=27	=27	=27	=27
ii	E	4EE'/	4E'/	4B'/	4g'/
.	E	4EE'/	4E'/	4B'/	4g'/
.	E	4EE'/	4E'/	4B'/	4g'/
=28	=28	=28	=28	=28	=28
!!pagebreak:original
VIb	B	4DD#/	4D#/	2B/	4f#/
ii	E	4EE/	4E/	.	4g/
V7b	A	4CC#/	4C#/	4g/	4b\
=29	=29	=29	=29	=29	=29
I	D	4DD'/	4D'/	2f#/	2a/
iii	F#	4FF#'/	4F#'/	.	.
V	A	4AA'/	4A'/	4e/	4c#/
=30	=30	=30	=30	=30	=30
I	D	4D\	4d\	4d/	4d/
ii	E	4r	4r	4r	4r
.	r	4r	4r	4r	4r
=31	=31	=31	=31	=31	=31
vi	B	4BB'/	4f#'\	4d'/ 4b'/	12b\L
.	B	.	.	.	12dd\
.	B	.	.	.	12ff#\J
.	B	4BB'/	4f#'\	4d'/ 4b'/	12bb\L
.	B	.	.	.	12ff#\
.	B	.	.	.	12dd\J
.	B	4BB'/	4f#'\	4d'/ 4b'/	12b/L
.	B	.	.	.	12f#/
.	B	.	.	.	12d/J
=32	=32	=32	=32	=32	=32
.	B	4BB'/	4f#'\	4d'/ 4b'/	4B/
.	r	4r	4r	4r	4r
.	B	4r	4r	4r	4r
=33	=33	=33	=33	=33	=33
.	B	4B'\	4f#'\	4f#'/	4dd'\
.	B	4B'\	4f#'\	4f#'/	4dd'\
.	B	4B'\	4f#'\	4f#'/	4dd'\
=34	=34	=34	=34	=34	=34
*A:	*A:	*	*	*	*
V7c	E	2.B\	[2.e\	2.g#/	2dd\
.	E	.	.	.	8ee\L
.	E	.	.	.	8b\J
=35	=35	=35	=35	=35	=35
I	A	4A\	4e\]	4a/	4cc#\
.	A	4A'\	4e'\	4a'/	4cc#'\
.	A	4A'\	4e'\	4a'/	4cc#'\
=36	=36	=36	=36	=36	=36
!!linebreak:original
.	A	4A'\	4e'\	4a'/	4cc#'\
.	r	4r	4r	4r	4r
.	A	4r	4r	4r	4r
=37	=37	=37	=37	=37	=37
*Am:	*Am:	*	*	*	*
i	A	4AA'/	4cn'\ 4e'\	4e'/ 4ccn'/	12a\L
.	A	.	.	.	12ccn\
.	A	.	.	.	12ee\J
.	A	4AA'/	4c'\ 4e'\	4e'/ 4cc'/	12aa\L
.	A	.	.	.	12ee\
.	A	.	.	.	12cc\J
.	A	4AA'/	4c'\ 4e'\	4e'/ 4cc'/	12a/L
.	A	.	.	.	12e/
.	A	.	.	.	12cn/J
=38	=38	=38	=38	=38	=38
.	A	4AA'/	4cn'\ 4e'\	4e'/ 4ccn'/	4A/
.	r	4r	4r	4r	4r
.	r	4r	4r	4r	4r
=39	=39	=39	=39	=39	=39
V7/ii	F	4Fn'\	4cn'\	4d#'/	4a'/
.	F	4F'\	4c'\	4d#'/	4a'/
.	F	4F'\	4c'\	4d#'/	4a'/
=40	=40	=40	=40	=40	=40
.	F	2.Fn\	4cn\	2.d#/	4a/
V7d/iii	G	.	4B/	.	4b\
V7/ii	F	.	[4A/	.	4ccn\
=41	=41	=41	=41	=41	=41
ic	A	[2.E\	4A/]	2e/	4ccn\
V	E	.	4G#/	.	4b\
ic	A	.	4F#/	4a/	4dd#\
=42	=42	=42	=42	=42	=42
*A:	*A:	*	*	*	*
V	E	2E\]	4G#/	4b\	[2.ee\
.	E	.	4B/	4g#/	.
V7d	E	4D\	4B/	4g#/	.
=43	=43	=43	=43	=43	=43
!!linebreak:original
Ib	A	4C#/	4A/	4a/	12ee\L]
.	A	.	.	.	12dd#\
.	A	.	.	.	12ee\J
IIb	B	4r	4d\	2f#/	12ff#\L
.	B	.	.	.	12ee\
.	B	.	.	.	12dd#\J
V7b/V	B	4r	4d#\	.	12cc#\L
.	B	.	.	.	12b\
.	B	.	.	.	12a\J
=44	=44	=44	=44	=44	=44
V	E	12EE/L	4e\	4e/	4g#/
.	E	12GG#/	.	.	.
.	E	12BB/J	.	.	.
.	E	12E\L	4r	4r	4r
.	E	12F#\	.	.	.
.	E	12E\J	.	.	.
V7c	E	12D/L	4r	4r	[4ee\
.	E	12C#/	.	.	.
.	E	12BB/J	.	.	.
=45	=45	=45	=45	=45	=45
Ib	A	4C#/	4c#\	4a/	12ee\L]
.	A	.	.	.	12dd#\
.	A	.	.	.	12ee\J
IIb	B	4r	4d\	4f#/	12ff#\L
.	B	.	.	.	12ee\
.	B	.	.	.	12dd#\J
V7b/V	B	4r	4d#\	4f#/	12cc#\L
.	B	.	.	.	12b\
.	B	.	.	.	12a\J
=46	=46	=46	=46	=46	=46
V	E	12EE/L	4e\	4e/	4g#/
.	E	12GG#/	.	.	.
.	E	12BB/J	.	.	.
.	E	12E\L	4r	4r	4r
.	E	12F#\	.	.	.
.	E	12E\J	.	.	.
V7c	E	12D/L	4r	4r	4r
.	E	12C#/	.	.	.
.	E	12BB/J	.	.	.
=47	=47	=47	=47	=47	=47
!!pagebreak:original
I	A	4AA/	4c#\	4e/	12a\L
.	A	.	.	.	12cc#\
.	A	.	.	.	12ee\J
vi	F#	4r	4r	4r	12aa\L
.	F#	.	.	.	12gg#\
.	F#	.	.	.	12ff#\J
vi7c	F#	4r	4r	4r	12ee\L
.	F#	.	.	.	12dd\
.	F#	.	.	.	12cc#\J
=48	=48	=48	=48	=48	=48
iib	B	4d\	4d\	4f#/	12b\L
.	B	.	.	.	12ff#\
.	B	.	.	.	12ee\J
.	B	4r	4r	4r	12dd\L
.	B	.	.	.	12cc#\
.	B	.	.	.	12b\J
ii7c	B	4r	4r	4r	12a/L
.	B	.	.	.	12g#/
.	B	.	.	.	12f#/J
=49	=49	=49	=49	=49	=49
.	B	2d\	[2.e\	4B/	12e/L
.	B	.	.	.	12g#/
.	B	.	.	.	12a/J
.	B	.	.	4r	12b/L
.	B	.	.	.	12a/
.	B	.	.	.	12g#/J
vic	F#	4c#\	.	4r	12a\L
.	F#	.	.	.	12b\
.	F#	.	.	.	12cc#\J
=50	=50	=50	=50	=50	=50
V7	E	12E\L	2.e\_	2b\	2dd\
.	E	12G#\	.	.	.
.	B	12A\J	.	.	.
ii7	B	12B\L	.	.	.
.	B	12A\	.	.	.
.	B	12G#\J	.	.	.
I	A	12A\L	.	4a/	4cc#\
.	A	12B\	.	.	.
.	A	12c#\J	.	.	.
=51	=51	=51	=51	=51	=51
!!linebreak:original
V7d	E	2d\	2.e\_	2.r	12e/L
.	E	.	.	.	12g#/
.	E	.	.	.	12a/J
ii7b	B	.	.	.	12b/L
.	B	.	.	.	12a/
.	B	.	.	.	12g#/J
vic	F#	4c#\	.	.	12a\L
.	F#	.	.	.	12b\
.	F#	.	.	.	12cc#\J
=52	=52	=52	=52	=52	=52
V7	E	12E\L	2.e\]	2b\	2dd\
.	E	12G#\	.	.	.
.	B	12A\J	.	.	.
ii7	B	12B\L	.	.	.
.	B	12A\	.	.	.
.	B	12G#\J	.	.	.
vib	F#	12A\L	.	4cc#\	4cc#\
.	F#	12B\	.	.	.
.	F#	12c#\J	.	.	.
=53	=53	=53	=53	=53	=53
ii7b	B	[2.d\	12f#\L	4cc#\	2.ff#\
.	B	.	12g#\	.	.
.	B	.	12a\J	.	.
.	B	.	12cc#\L	4b\	.
.	B	.	12dd\	.	.
.	B	.	12cc#\J	.	.
.	B	.	12b\L	4b\	.
.	B	.	12cc#\	.	.
.	B	.	12a\J	.	.
=54	=54	=54	=54	=54	=54
!!linebreak:original
.	B	2.d\]	4c#\	2.b\	12ee\L
.	B	.	.	.	12gg#\
.	B	.	.	.	12ff#\J
V7d	E	.	4g#\	.	12ee\L
.	E	.	.	.	12gg#\
.	E	.	.	.	12aa\J
.	E	.	[4e\	.	12bb\L
.	E	.	.	.	12ccc#\
.	E	.	.	.	12ddd\J
=55	=55	=55	=55	=55	=55
Ib	A	2.c#\	4e\]	4a/	[2.eee\
.	A	.	4a\	4cc#\	.
.	A	.	4a\	4ee\	.
=56	=56	=56	=56	=56	=56
IV	D	[2.d\	2a\	[2.ff#\	4eee\]
.	D	.	.	.	4ddd\
.	D	.	4a#\	.	4ccc#\
=57	=57	=57	=57	=57	=57
iib	B	4d\]	[2.b\	4ff#\]	[2.ddd\
V7	E	4c#\	.	4ee\	.
Chr	G	4B\	.	4dd\	.
=58	=58	=58	=58	=58	=58
Ib	A	[2.c#\	4b\]	[2.ee\	4ddd\]
.	A	.	4a\	.	4ccc#\
ib	A	.	4g#\	.	4bb#\
=59	=59	=59	=59	=59	=59
Ib	A	4c#\]	[2.a\	4ee\]	[2.ccc#\
.	A	4B\	.	4dd\	.
.	A	4A\	.	4cc#\	.
=60	=60	=60	=60	=60	=60
!!pagebreak:original
ii7	B	2.B\	4a\]	[2.dd\	12ccc#\L]
.	B	.	.	.	12bb#\
.	B	.	.	.	12ccc#\J
V7c	E	.	4g#\	.	12ddd\L
.	E	.	.	.	12ccc#\
.	E	.	.	.	12bbn\J
.	E	.	4g#\	.	12aa\L
.	E	.	.	.	12gg#\
.	E	.	.	.	12ff#\J
=61	=61	=61	=61	=61	=61
.	E	[2.B\	[2.g#\	2.dd\_	4ee\
.	E	.	.	.	4ee'\
.	E	.	.	.	4ee'\
=62	=62	=62	=62	=62	=62
.	E	2.B\]	2.g#\]	2.dd\]	[2.ee\
=63	=63	=63	=63	=63	=63
Ib	A	2.c#\	4a\	4cc#\	4ee\]
.	A	.	4a'\	4a'/	4aa\
.	A	.	4a'\	4a'/	4gg#\
=64	=64	=64	=64	=64	=64
IV	D	2d\	2.a\	2.a/	4gg#\
.	D	.	.	.	4ff#\
Ib	A	4c#\	.	.	[4ee\
=65	=65	=65	=65	=65	=65
V7c	E	2B\	2d\	2g#/	4ee\]
ii	B	.	.	.	12ff#\L
.	B	.	.	.	12dd\
.	B	.	.	.	12b\J
I	A	4A\	4c#\	4a/	[4cc#\
=66	=66	=66	=66	=66	=66
IV	D	2D\	2d\	2f#/	4cc#\]
iib	B	.	.	.	4b\
V7	E	4E\	4B/	4d/	12dd\L
.	E	.	.	.	12b\
.	E	.	.	.	12g#\J
=67	=67	=67	=67	=67	=67
!!linebreak:original
I	A	4AA/	4c#\	4c#/	4a/
V	r	4r	4r	4r	4r
.	E	4r	4r	4r	4r
=68	=68	=68	=68	=68	=68
*Bm:	*Bm:	*	*	*	*
Vb	F#	4AA#'/	4A#'/	4A#'/	4A#'/
.	F#	4AA#'/	4A#'/	4A#'/	4A#'/
.	F#	4AA#'/	4A#'/	4A#'/	4A#'/
=69	=69	=69	=69	=69	=69
.	F#	4AA#/	4A#/	4A#/	4A#/
i	B	4BB/	4B/	4B/	4B/
III	D	4DD/	4D/	[4d/	[4f#/
=70	=70	=70	=70	=70	=70
*A:	*A:	*	*	*	*
V7	E	2.EE/	2E/	4d/]	4f#/]
.	E	.	.	4c#/	4e/
.	E	.	4D/	4B/	4G#/
=71	=71	=71	=71	=71	=71
I	A	4AA'/	4C#'/	4A'/	4A'/
.	A	4AA'/	4A'/	4A'/	4A'/
.	A	4AA'/	4A'/	4A'/	4A'/
=72	=72	=72	=72	=72	=72
.	A	4.AA/	4.A/	4.A/	4.A/
.	A	16BB/LL	16B/LL	16B/LL	16B/LL
.	A	16C#/JJ	16c#/JJ	16c#/JJ	16c#/JJ
V7d	E	16D\LL	16d\LL	16d/LL	16d/LL
.	E	16E\	16e\	16e/	16e/
.	D	16F#\	16f#\	16f#/	16f#/
.	D	16G#\JJ	16g#\JJ	16g#/JJ	16g#/JJ
=73	=73	=73	=73	=73	=73
I	A	4A'\	4a'\	4a'/	4a'/
.	A	4AA'/	4a'\	4e'/	4.aa\
.	r	4r	4r	4r	.
.	E	.	.	.	8gg#\
=74	=74	=74	=74	=74	=74
Vb	E	4r	4r	4r	4gg#'\
V7b/IV	A	2c#\	2a#\	2ee\	2ggn\
=75	=75	=75	=75	=75	=75
!!linebreak:original
iib	B	4d\	4b\	4dd\	12ff#\L
.	B	.	.	.	12ee\
.	B	.	.	.	12dd\J
Vc	E	4r	4r	4r	12cc#\L
.	E	.	.	.	12b\
.	E	.	.	.	12bb\J
.	E	4r	4r	4r	12bb\L
.	E	.	.	.	12b\
.	E	.	.	.	12aa\J
=76	=76	=76	=76	=76	=76
V7d	E	4d\	4e\	4b\	12aa\L
.	E	.	.	.	12gg#\
.	E	.	.	.	12aa\J
.	E	4r	4r	4r	12bb\L
.	E	.	.	.	12aa\
.	E	.	.	.	12gg#\J
.	E	4r	4r	4r	12ff#\L
.	E	.	.	.	12ee\
.	E	.	.	.	12bb\J
=77	=77	=77	=77	=77	=77
.	E	4d'\	4e'\	4b'\	12gg#\L
.	E	.	.	.	12ee\
.	E	.	.	.	12bb\J
.	E	4d'\	4e'\	4b'\	12gg#\L
.	E	.	.	.	12ee\
.	E	.	.	.	12bb\J
.	E	4d'\	4e'\	8.b/L	12gg#\L
.	E	.	.	.	12ee\
.	E	.	.	.	12bb\J
.	E	.	.	16g#/Jk	.
=78	=78	=78	=78	=78	=78
Ib	A	4c#\	4e\	4a/	12aa\L
.	A	.	.	.	12gg#\
.	A	.	.	.	12ff#\J
.	A	4r	4r	4r	12ee\L
.	A	.	.	.	12dd\
.	A	.	.	.	12cc#\J
ii7d	B	4r	4r	4r	12b\L
.	B	.	.	.	12a\
.	B	.	.	.	12bb\J
=79	=79	=79	=79	=79	=79
!!pagebreak:original
V7d	E	4d'\	4e'\	4b'\	12gg#\L
.	E	.	.	.	12ee\
.	E	.	.	.	12bb\J
.	E	4d'\	4e'\	4b'\	12gg#\L
.	E	.	.	.	12ee\
.	E	.	.	.	12bb\J
.	E	4d'\	4e'\	8.b/L	12gg#\L
.	E	.	.	.	12ee\
.	E	.	.	.	12bb\J
.	E	.	.	16g#/Jk	.
=80	=80	=80	=80	=80	=80
Ib	A	4c#\	4e'\	4a/	12aa\L
.	A	.	.	.	12gg#\
.	A	.	.	.	12ff#\J
.	A	4r	4r	4r	12ee\L
.	A	.	.	.	12dd\
.	A	.	.	.	12cc#\J
ii7d	B	4r	4r	4r	12b\L
.	B	.	.	.	12a\
.	B	.	.	.	12bb\J
=81	=81	=81	=81	=81	=81
V7d	E	4d'\	4e'\	4b'\	12gg#\L
.	E	.	.	.	12ee\
.	E	.	.	.	12bb\J
.	E	4d'\	4e'\	4b'\	12gg#\L
.	E	.	.	.	12ee\
.	E	.	.	.	12bb\J
.	E	4d'\	4e'\	8.b/L	12gg#\L
.	E	.	.	.	12ee\
.	E	.	.	.	12bb\J
.	E	.	.	16g#/Jk	.
=82	=82	=82	=82	=82	=82
I	A	12c#\L	12e\L	12a/L	12aa\L
.	A	12A\	12A\	12a/	12a\
.	B	12B\J	12B\J	12b/J	12b\J
.	A	12c#\L	12c#/L	12cc#\L	12cc#\L
.	A	12A\	12A/	12a\	12a\
.	A	12c#\J	12c#/J	12cc#\J	12cc#\J
.	A	12e\L	12e\L	12ee\L	12ee\L
.	A	12c#\	12c#\	12cc#\	12cc#\
.	A	12e\J	12e\J	12ee\J	12ee\J
=83	=83	=83	=83	=83	=83
!!linebreak:original
*D:	*D:	*	*	*	*
IV	G	4g'\	4g'\	4gg'\	4gg'\
V	A	4r	4r	4r	4r
.	r	4r	4r	4r	4r
=84	=84	=84	=84	=84	=84
I	D	4D\	4D/	4r	4r
.	D	4r	4r	4d/	4f#/
.	D	4r	4r	4dd\	4ff#\
=85	=85	=85	=85	=85	=85
V	A	2.r	2.r	2a#/	2cc#\
vi	B	.	.	4b\	4dd\
=86	=86	=86	=86	=86	=86
Vc	A	2.E\	2c#\	2e/	2a/
V7/V	E	.	4B/	4d/	8b/L
.	E	.	.	.	8g#/J
=87	=87	=87	=87	=87	=87
V	A	4AA/	4A/	4c#/	4a/
.	A	4r	4r	4a/	4cc#\
IVb	G	4r	4r	4b\	4dd\
=88	=88	=88	=88	=88	=88
Vb	A	2.r	2.r	4cc#\	4ee\
Ib	D	.	.	4ff#\	4aa\
ii	E	.	.	4ee\	4gg\
=89	=89	=89	=89	=89	=89
I	D	4r	4r	4dd\	4ff#\
.	D	4D\	4F#/	4r	4r
.	D	4d\	4f#\	4r	4r
=90	=90	=90	=90	=90	=90
IIIb	F#	2A#\	2c#\	4r	4r
V7	A	.	.	4g/	4ee\
vi	B	4B\	4d\	4f#/	4dd\
=91	=91	=91	=91	=91	=91
*A:	*A:	*	*	*	*
Vb	E	2G#\	2B/	4r	4r
V7b	E	.	.	4fn/	4dd\
I	A	4A\	4c#\	8e/L	4cc#\
.	A	.	.	8cc#/J	.
=92	=92	=92	=92	=92	=92
IV	D	[2.D\	4A#/	4cc#\	[2.ff#\
iib	B	.	4B/	4b\	.
ii7b	B	.	4B/	4a/	.
=93	=93	=93	=93	=93	=93
!!linebreak:original
V7d	E	2.D\_	[2.B/	[2.g#/	8ff#\L]
.	E	.	.	.	8ee\J
.	E	.	.	.	8dd#\L
.	E	.	.	.	8ee\J
.	E	.	.	.	8dd#\L
.	E	.	.	.	8ee\J
=94	=94	=94	=94	=94	=94
.	E	2.D\]	2.B/]	2.g#/]	[2.ee\
=95	=95	=95	=95	=95	=95
Ib	A	[2.C#/	[2.A/	[2.a/	4ee\]
.	A	.	.	.	4aa\
.	A	.	.	.	4gg#\
=96	=96	=96	=96	=96	=96
V7b/IV	A	4C#/]	2.A/_	2.a/_	4gg\
IV	D	2D\	.	.	4ff#\
iv	D	.	.	.	4ffn\
=97	=97	=97	=97	=97	=97
Ic	A	4E\	2.A/]	2.a/]	4ee\
IVb	D	4F#\	.	.	4dd#\
ivb	D	4Fn\	.	.	4ddn\
=98	=98	=98	=98	=98	=98
Ic	A	2.E\	2A/	2e/	2cc#\
V7	E	.	4B/	4d/	12dd\L
.	E	.	.	.	12b\
.	E	.	.	.	12g#\J
=99	=99	=99	=99	=99	=99
I	A	4AA/	4A/	4c#/	4a/
IVc	r	4r	4r	12r	12r
.	D	.	.	12dd\L	12ff#\L
.	E	.	.	12ee\J	12gg#\J
.	D	4r	4r	12ff#\L	12aa\L
.	D	.	.	12ee\	12gg#\
.	D	.	.	12dd\J	12ff#\J
=100	=100	=100	=100	=100	=100
!!pagebreak:original
Ib	A	4r	4r	4cc#'\	4ee'\
.	A	12r	12r	4r	4r
.	A	12B\L	12d\L	.	.
.	A	12c#\J	12e\J	.	.
IV	D	12d\L	12f#\L	4r	4r
.	E	12c#\	12e\	.	.
.	E	12B\J	12d\J	.	.
=101	=101	=101	=101	=101	=101
I	A	4A'\	4c#'\	4r	4r
IV	D	12r	12r	12r	12r
.	D	12BB/L	12d\L	12dd\L	12ff#\L
.	A	12C#/J	12e\J	12cc#\J	12ee\J
ii	B	12D/L	12f#\L	12b\L	12dd\L
.	A	12C#/	12e\	12cc#\	12ee\
.	B	12BB/J	12d\J	12dd\J	12ff#\J
=102	=102	=102	=102	=102	=102
Ic	A	4E'\	4e'\	4a'/	4cc#'\
.	r	4r	4r	4r	4r
V7	E	4E\	4d\	4g#/	16cc#\LL
.	E	.	.	.	16b\
.	E	.	.	.	16a\
.	E	.	.	.	16b\JJ
=103	=103	=103	=103	=103	=103
I	A	4AA/	4c#'\	4a'/	4a'/
.	A	12r	12r	4r	4r
.	A	12c#\L	12e\L	.	.
.	G	12B\J	12d\J	.	.
.	A	12A\L	12c#\L	4r	4r
.	A	12B\	12d\	.	.
.	A	12c#\J	12e\J	.	.
=104	=104	=104	=104	=104	=104
IV	D	4d'\	4f#'\	4r	4r
V	E	4r	4r	12r	12r
.	E	.	.	12g#/L	12b/L
.	D	.	.	12f#/J	12a/J
.	E	4r	4r	12e/L	12g#/L
.	E	.	.	12f#/	12a/
.	E	.	.	12g#/J	12b/J
=105	=105	=105	=105	=105	=105
!!linebreak:original
I	A	4r	4r	4a/	4cc#\
IV	r	12r	12r	12r	12r
.	D	12d\L	12f#\L	12b\L	12dd\L
.	A	12c#\J	12e\J	12cc#\J	12ee\J
ii	B	12B\L	12d\L	12dd\L	12ff#\L
.	A	12c#\	12e\	12cc#\	12ee\
.	D	12d\J	12f#\J	12b\J	12dd\J
=106	=106	=106	=106	=106	=106
Ic	A	4e'\	4e'\	4a'/	4cc#'\
.	r	4r	4r	4r	4r
V7	E	4E\	4d\	4g#/	16cc#\LL
.	E	.	.	.	16b\
.	E	.	.	.	16a\
.	E	.	.	.	16b\JJ
=107	=107	=107	=107	=107	=107
I	A	4A\	4c#'\	4a'/	4a'/
.	A	4r	4r	4r	4a'/
.	A	16e\LL	16g#\LL	4r	4a'/
.	A	16d\	16f#\	.	.
.	A	16c#\	16e\	.	.
.	A	16d\JJ	16f#\JJ	.	.
=108	=108	=108	=108	=108	=108
.	A	4c#\	4e\	4r	[2.a/
.	A	4r	4r	4A/	.
.	A	16c#\LL	16e\LL	4r	.
.	A	16B\	16d\	.	.
.	A	16A\	16c#\	.	.
.	A	16B\JJ	16d\JJ	.	.
=109	=109	=109	=109	=109	=109
.	A	4A\	4c#\	4r	2.a/_
.	A	4r	4r	4A/	.
V7c/IV	A	4r	16g\LL	16b/LL	.
.	A	.	16f#\	16a/	.
.	A	.	16e\	16g/	.
.	A	.	16f#\JJ	16a/JJ	.
=110	=110	=110	=110	=110	=110
!!linebreak:original
v	E	4r	4e\	4g/	2.a/_
I	A	4AA/	4c#\	4e/	.
V7b/IV	A	4r	16e\LL	16g/LL	.
.	A	.	16d\	16f#/	.
.	A	.	16c#\	16e/	.
.	A	.	16d\JJ	16f#/JJ	.
=111	=111	=111	=111	=111	=111
.	A	4r	4c#\	4e/	4a/]
.	A	4AA'/	4A'/	4A'/	4A'/
.	A	4AA'/	4A'/	4A'/	4A'/
=112	=112	=112	=112	=112	=112
.	A	4AA/	4A/	4A/	4A/
VIb	F#	4BB-/	4B-/	4B-/	4B-/
Ib	A	4CC#/	4c#\	4c#/	4c#/
=113:|!|:	=113:|!|:	=113:|!|:	=113:|!|:	=113:|!|:	=113:|!|:
.	A	2AA/	2A/	2A/	2A/
VIb	F#	4AA#/	4A#/	4A#/	4A#/
=114	=114	=114	=114	=114	=114
*Em:	*Em:	*	*	*	*
V	B	4BB'/	4B'/	4B'/	4B'/
.	B	4BB'/	4B'/	4B'/	4B'/
.	B	4BB'/	4B'/	4B'/	4B'/
=115	=115	=115	=115	=115	=115
.	B	[2.BB/	2.B/	2.B/	2.B/
=116	=116	=116	=116	=116	=116
V7	B	2.BB/_	2.d#\	2.f#/	2.a/
=117	=117	=117	=117	=117	=117
ic	E	2.BB/_	2.e\	4e/	4g/
.	E	.	.	4g/	4b\
.	E	.	.	4g'/	4ee\
=118	=118	=118	=118	=118	=118
V7	B	2.BB/_	4a\	4f#/	4dd#\
.	B	.	4f#\	4dd#\	4ff#\
.	B	.	4d#\	4ff#\	4aa\
=119	=119	=119	=119	=119	=119
!!pagebreak:original
ic	E	2.BB/_	4e\	4ee\	4gg\
.	E	.	4g\	4g/	4ee\
.	E	.	4g\	4e/	4a#/
=120	=120	=120	=120	=120	=120
V	B	4BB/]	4f#\	4d#/	4b\
.	B	4BB'/	4B'/	4B'/	4B'/
.	B	4BB'/	4B'/	4B'/	4B'/
=121	=121	=121	=121	=121	=121
.	B	2BB/	2B/	2B/	2B/
.	B	4BB#/	4B#/	4B#/	4B#/
=122	=122	=122	=122	=122	=122
*F#m:	*F#m:	*	*	*	*
V	C#	4C#'/	4c#'\	4c#'/	4c#'/
.	C#	4C#'/	4c#'\	4c#'/	4c#'/
.	C#	4C#'/	4c#'\	4c#'/	4c#'/
=123	=123	=123	=123	=123	=123
.	C#	2.C#/	2.c#\	2.c#/	2.c#/
=124	=124	=124	=124	=124	=124
V7	C#	[2.C#/	2.fn\	2.g#/	2.b\
=125	=125	=125	=125	=125	=125
ic	F#	2.C#/_	2.f#\	4f#/	4a/
.	F#	.	.	4a/	4cc#\
.	F#	.	.	4a'/	4ff#\
=126	=126	=126	=126	=126	=126
V7	C#	2.C#/_	4b\	4g#/	4ee#\
.	C#	.	4g#\	4ee#\	4gg#\
.	C#	.	4e#\	4gg#\	4bb\
=127	=127	=127	=127	=127	=127
ic	F#	2.C#/_	4f#\	4ff#\	4aa\
.	F#	.	4a'\	4a/	4ff#\
.	F#	.	4a'\	4f#/	4b#\
=128	=128	=128	=128	=128	=128
!!linebreak:original
V	C#	2.C#/_	4g#\	4e#/	4cc#\
.	C#	.	4e#'\	4g#/	4ee#\
V7	C#	.	4e#'\	4b\	4gg#\
=129	=129	=129	=129	=129	=129
ic	F#	2.C#/]	4f#\	4a/	4ff#\
.	F#	.	4a'\	4f#'/	4b#'\
.	F#	.	4a'\	4f#'/	4b#'\
=130	=130	=130	=130	=130	=130
V	C#	4C#'/	4g#'\	4e#'/	4cc#'\
.	C#	4C#'/	4g#'\	4e#'/	4cc#'\
.	C#	4C#'/	4g#'\	4e#'/	4cc#'\
=131	=131	=131	=131	=131	=131
.	C#	4C#/	4g#\	4e#/	[2cc#\
.	C#	4r	4r	4r	.
.	C#	4r	4r	4r	8.cc#\L]
.	C#	.	.	.	16dd\Jk
=132	=132	=132	=132	=132	=132
*D:	*D:	*	*	*	*
ii	E	2.r	2.r	2.r	4ee\
iiic	F#	.	.	.	4cc#\
V	A	.	.	.	4a/
=133	=133	=133	=133	=133	=133
iib	E	2.r	2.r	2.r	4g/
.	E	.	.	.	4e/
iiic	F#	.	.	.	4c#/
=134	=134	=134	=134	=134	=134
I	D	4DD'/	4D'/	4d'/	4d'/
.	D	4DD'/	4D'/	4d'/	4d'/
.	D	4DD'/	4D'/	4d'/	4d'/
=135	=135	=135	=135	=135	=135
.	D	[2.DD/	2.D/	2.d/	2.d/
=136	=136	=136	=136	=136	=136
.	D	2.DD/_	[2.A/	2.c#/	2.g/
=137	=137	=137	=137	=137	=137
!!linebreak:original
.	D	2.DD/]	4A/]	4d/	4f#/
IVc	G	.	4C#/	4g/	4b\
I	D	.	4D/	4f#/	4a/
=138	=138	=138	=138	=138	=138
.	D	4DD'/	4D'/	2f#/	2dd\
.	D	4DD'/	4D'/	.	.
IVc	G	4DD'/	4D'/	4g/	16cc#\LL
.	G	.	.	.	16b\
.	G	.	.	.	16a\
.	G	.	.	.	16b\JJ
=139	=139	=139	=139	=139	=139
I	D	4DD/	4D/	4f#/	4a/
.	D	4r	4r	4f#/	4a/
iib	E	4r	4r	4g/	4b\
=140	=140	=140	=140	=140	=140
*E:	*E:	*	*	*	*
Dim	A	2.r	4d#'\	2a/	2ccn\
.	A	.	4d#'\	.	.
V7b	B	.	4d#'\	16g#/LL	16b/LL
.	B	.	.	16f#/	16a/
.	B	.	.	16e/	16g#/
.	B	.	.	16f#/JJ	16a/JJ
=141	=141	=141	=141	=141	=141
I	E	2.r	4e\	4e/	4g#/
.	E	.	4r	4g#/	4b\
Vc	B	.	4r	4f#/	4dd#\
=142	=142	=142	=142	=142	=142
I	E	4EE'/	2.r	2g#/	2ee\
.	E	4EE'/	.	.	.
IVc	A	4EE'/	.	4a/	16dd\LL
.	A	.	.	.	16cc#\
.	A	.	.	.	16b\
.	A	.	.	.	16cc#\JJ
=143	=143	=143	=143	=143	=143
I	E	4EE/	2.r	4g#/	4b\
.	E	4r	.	4g#/	4b\
iib	F#	4r	.	4a/	4cc#\
=144	=144	=144	=144	=144	=144
!!pagebreak:original
*F#:	*F#:	*	*	*	*
Dim	B	2.r	4e#'\	2b\	2dd\
.	B	.	4e#'\	.	.
V7b	C#	.	4e#'\	16a#/LL	16cc#\LL
.	C#	.	.	16g#/	16b\
.	C#	.	.	16f#/	16a#\
.	C#	.	.	16g#/JJ	16b\JJ
=145	=145	=145	=145	=145	=145
I	F#	2.r	4f#\	4f#/	4a#/
.	F#	.	4r	4a#/	4cc#\
Vc	C#	.	4r	4g#/	4ee#\
=146	=146	=146	=146	=146	=146
*Bm:	*Bm:	*	*	*	*
V	F#	4FF#'/	2.r	2a#/	2ff#\
.	F#	4FF#'/	.	.	.
ic	B	4FF#'/	.	4b\	16ee\LL
.	B	.	.	.	16dd\
.	B	.	.	.	16cc#\
.	B	.	.	.	16dd\JJ
=147	=147	=147	=147	=147	=147
V	F#	4FF#/	2.r	4a#/	4cc#\
.	F#	4r	.	4a#/	4cc#\
i	B	4r	.	4b\	4dd\
=148	=148	=148	=148	=148	=148
V7	F#	2.r	4f#'\	2cc#\	2ee\
.	F#	.	4f#'\	.	.
.	F#	.	4f#'\	4a#/	16dd\LL
.	F#	.	.	.	16cc#\
.	F#	.	.	.	16b\
.	F#	.	.	.	16cc#\JJ
=149	=149	=149	=149	=149	=149
i	B	4B'\	4f#'\	4d'/ 4b'/	12bb\L
.	B	.	.	.	12ff#\
.	B	.	.	.	12dd\J
i7	B	4B'\	4f#'\	4d'/ 4b'/	12cc#\L
.	B	.	.	.	12b\
.	B	.	.	.	12a\J
.	B	4B'\	4f#'\	4d'/ 4b'/	12g/L
.	B	.	.	.	12f#/
.	B	.	.	.	12e/J
=150	=150	=150	=150	=150	=150
!!linebreak:original
.	B	4B\	4f#\	4d/ 4b/	12d/L
.	B	.	.	.	12f#/
.	B	.	.	.	12b/J
.	B	4r	4r	4r	12f#/L
.	B	.	.	.	12b/
.	B	.	.	.	12dd/J
.	B	4r	4r	4r	12b\L
.	B	.	.	.	12dd\
.	B	.	.	.	12ff#\J
=151	=151	=151	=151	=151	=151
*E:	*E:	*	*	*	*
V7d	B	4A'\	4d#'\	4f#'/	12bb\L
.	B	.	.	.	12ff#\
.	B	.	.	.	12dd#\J
.	B	4A'\	4d#'\	4f#'/	12cc#\L
.	B	.	.	.	12b\
.	B	.	.	.	12a\J
.	B	4A'\	4d#'\	4f#'/	12g#/L
.	B	.	.	.	12f#/
.	B	.	.	.	12e/J
=152	=152	=152	=152	=152	=152
.	B	4A\	4d#\	4f#/	12d#/L
.	B	.	.	.	12f#/
.	B	.	.	.	12b/J
.	B	4r	4r	4r	12f#/L
.	B	.	.	.	12b/
.	B	.	.	.	12dd#/J
.	B	4r	4r	4r	12b\L
.	B	.	.	.	12dd#\
.	B	.	.	.	12ff#\J
=153	=153	=153	=153	=153	=153
*Em:	*Em:	*	*	*	*
ib	E	4G'\	4B/	4e'/	12bb\L
.	E	.	.	.	12gg\
.	E	.	.	.	12ee\J
i7b	E	4G'\	4B/	4e'/	12dd\L
.	E	.	.	.	12ccn\
.	E	.	.	.	12b\J
.	E	4G'\	4B/	4e'/	12a/L
.	E	.	.	.	12g/
.	E	.	.	.	12f#/J
=154	=154	=154	=154	=154	=154
!!linebreak:original
.	E	4G\	4B'/	4e/	12e/L
.	E	.	.	.	12g/
.	E	.	.	.	12b/J
.	E	4r	4r	4r	12g\L
.	E	.	.	.	12b\
.	E	.	.	.	12ee\J
.	E	4r	4r	4r	12b\L
.	E	.	.	.	12ee\
.	E	.	.	.	12gg\J
=155	=155	=155	=155	=155	=155
V7b	B	4D#'\	4B'/	4f#'/	12bb\L
.	B	.	.	.	12aa\
.	B	.	.	.	12ff#\J
.	B	4D#'\	4B'/	4f#'/	12b\L
.	B	.	.	.	12dd#\
.	B	.	.	.	12ff#\J
.	B	4D#'\	4B'/	4f#'/	12bb\L
.	B	.	.	.	12aa\
.	B	.	.	.	12ff#\J
=156	=156	=156	=156	=156	=156
.	B	4D#\	4B/	4f#/	12bb\L
.	B	.	.	.	12aa\
.	B	.	.	.	12ff#\J
.	B	4r	4r	4r	12b\L
.	B	.	.	.	12dd#\
.	B	.	.	.	12ff#\J
.	B	4r	4r	4r	12bb\L
.	B	.	.	.	12aa\
.	B	.	.	.	12ff#\J
=157	=157	=157	=157	=157	=157
i	E	4e'\	4g'\	4b'\	12gg\L
.	E	.	.	.	12ee\
.	E	.	.	.	12bb\J
.	E	4e'\	4g'\	4b'\	12gg\L
.	E	.	.	.	12ee\
.	E	.	.	.	12bb\J
.	E	4e'\	4g'\	4b'\	12gg\L
.	E	.	.	.	12ee\
.	E	.	.	.	12bb\J
=158	=158	=158	=158	=158	=158
!!pagebreak:original
*E:	*E:	*	*	*	*
V7d/IV	E	4d'\	4b'\	4g#'/	12gg#\L
.	E	.	.	.	12ee\
.	E	.	.	.	12bb\J
.	E	4d'\	4b'\	4g#'/	12gg#\L
.	E	.	.	.	12ee\
.	E	.	.	.	12bb\J
.	E	4d'\	4b'\	4g#'/	12gg#\L
.	E	.	.	.	12ee\
.	E	.	.	.	12bb\J
=159	=159	=159	=159	=159	=159
vi7	C#	4c#'\	4b'\	4e#'/	12gg#\L
.	C#	.	.	.	12ee\
.	C#	.	.	.	12bb\J
.	C#	4c#'\	4b'\	4e#'/	12gg#\L
.	C#	.	.	.	12ee\
.	C#	.	.	.	12bb\J
.	C#	4c#'\	4b'\	4e#'/	12gg#\L
.	C#	.	.	.	12ee\
.	C#	.	.	.	12bb\J
=160	=160	=160	=160	=160	=160
*F#m:	*F#m:	*	*	*	*
V7	C#	4c#\	4b\	4e#/	4gg#\
i	F#	4r	4r	4r	4r
.	r	4r	4r	4r	4r
=161	=161	=161	=161	=161	=161
.	F#	4FF#'/	4F#'/	4f#'/	4f#'/
.	F#	4FF#'/	4F#'/	4f#'/	4f#'/
.	F#	4FF#'/	4F#'/	4f#'/	4f#'/
=162	=162	=162	=162	=162	=162
.	F#	[2.FF#/	2.F#/	2.f#/	2.f#/
=163	=163	=163	=163	=163	=163
ivc	B	2.FF#/_	2.E#/	2.g#/	2.b\
=164	=164	=164	=164	=164	=164
i	F#	2.FF#/]	4F#/	4f#/	4a/
ivc	B	.	4F#'/	4b\	4dd\
i	F#	.	4F#'/	4a/	4cc#\
=165	=165	=165	=165	=165	=165
!!linebreak:original
.	F#	4FF#'/	4F#'/	2a/	2ff#\
.	F#	4FF#'/	4F#'/	.	.
i7	F#	4FF#'/	4F#'/	16cc#\LL	16ee\LL
.	F#	.	.	16b\	16dd\
.	F#	.	.	16a\	16cc#\
.	F#	.	.	16b\JJ	16dd\JJ
=166	=166	=166	=166	=166	=166
.	F#	4FF#/	4F#/	4a/	4cc#\
.	F#	4r	4r	4r	4r
.	F#	4r	4r	4r	4r
=167	=167	=167	=167	=167	=167
*Bm:	*Bm:	*	*	*	*
V	F#	4F#'\	4A#'/	12f#/L	[2.ff#\
.	F#	.	.	12a#/	.
.	F#	.	.	12cc#/J	.
.	F#	4F#'\	4A#'/	12ff#\L	.
.	F#	.	.	12cc#\	.
.	F#	.	.	12a#\J	.
.	F#	4F#'\	4A#'/	12f#/L	.
.	F#	.	.	12a#/	.
.	F#	.	.	12cc#/J	.
=168	=168	=168	=168	=168	=168
V7d	F#	4E'\	4A#'/	12f#/L	2.ff#\_
.	F#	.	.	12a#/	.
.	F#	.	.	12cc#/J	.
.	F#	4E'\	4A#'/	12ff#\L	.
.	F#	.	.	12cc#\	.
.	F#	.	.	12a#\J	.
.	F#	4E'\	4A#'/	12f#/L	.
.	F#	.	.	12a#/	.
.	F#	.	.	12cc#/J	.
=169	=169	=169	=169	=169	=169
ib	B	4D'\	4B'/	12f#/L	2.ff#\_
.	B	.	.	12b/	.
.	B	.	.	12dd/J	.
.	B	4D'\	4B'/	12ff#\L	.
.	B	.	.	12dd\	.
.	B	.	.	12b\J	.
.	B	4D'\	4B'/	12f#/L	.
.	B	.	.	12b/	.
.	B	.	.	12dd/J	.
=170	=170	=170	=170	=170	=170
!!linebreak:original
Vb	F#	4AA#'/	4c#'\	12f#/L	4ff#\]
.	F#	.	.	12a#/	.
.	F#	.	.	12cc#/J	.
V7b	F#	4AA#'/	4c#'\	12ff#\L	4ee\
.	F#	.	.	12ee\	.
.	F#	.	.	12cc#\J	.
.	F#	4AA#'/	4c#'\	12ff#\L	[4ee\
.	F#	.	.	12ee\	.
.	F#	.	.	12cc#\J	.
=171	=171	=171	=171	=171	=171
i	B	4BB'/	4F#'/	12d/L	4ee\]
.	B	.	.	12f#/	.
.	B	.	.	12b/J	.
.	B	4BB'/	4F#'/	12dd\L	4dd\
.	B	.	.	12cc#\	.
.	B	.	.	12b\J	.
.	B	4BB'/	4F#'/	12dd\L	[4dd\
.	B	.	.	12cc#\	.
.	B	.	.	12b\J	.
=172	=172	=172	=172	=172	=172
iio7	C#	4G'\	4G'/	12e#/L	4dd\]
.	C#	.	.	12b/	.
.	C#	.	.	12cc#/J	.
iio7	C#	4G'\	4G'/	12dd\L	4e#'/
.	C#	.	.	12cc#\	.
.	C#	.	.	12b\J	.
iio7	C#	4G'\	4G'/	12dd\L	4e#'/
.	C#	.	.	12cc#\	.
.	C#	.	.	12b\J	.
=173	=173	=173	=173	=173	=173
V	F#	4F#\	4F#/	4a#/	4f#/
.	F#	4r	4r	4f#'/	4f#'/
.	F#	4r	4r	4f#'/	4f#'/
=174	=174	=174	=174	=174	=174
!!pagebreak:original
.	F#	2.r	2.r	[2.f#/	12f#/L
.	F#	.	.	.	12a#/
.	F#	.	.	.	12b/J
.	F#	.	.	.	12cc#\L
.	F#	.	.	.	12b\
.	F#	.	.	.	12a#\J
ii7d	C#	.	.	.	12b\L
.	C#	.	.	.	12cc#\
.	C#	.	.	.	12dd\J
=175	=175	=175	=175	=175	=175
V7	F#	12F#\L	2cc#\	2.f#/]	2ee\
.	F#	12A#\	.	.	.
.	F#	12B\J	.	.	.
ii7	C#	12c#\L	.	.	.
.	C#	12B\	.	.	.
.	C#	12A#\J	.	.	.
i	B	12B\L	4b\	.	4dd\
.	B	12c#\	.	.	.
.	B	12d\J	.	.	.
=176	=176	=176	=176	=176	=176
iv	E	2e\	2.r	[2.f#/	12f#/L
.	E	.	.	.	12a#/
.	E	.	.	.	12b/J
.	E	.	.	.	12cc#\L
.	E	.	.	.	12b\
.	E	.	.	.	12a#\J
ib	B	4d\	.	.	12b\L
.	B	.	.	.	12cc#\
.	B	.	.	.	12dd\J
=177	=177	=177	=177	=177	=177
V7	F#	12F#\L	2cc#\	2f#/]	2ee\
.	F#	12A#\	.	.	.
.	F#	12B\J	.	.	.
VII	A	12c#\L	.	.	.
.	A	12B\	.	.	.
.	A	12A#\J	.	.	.
i	B	12B\L	4b\	4dd\	4dd\
.	B	12c#\	.	.	.
.	B	12d\J	.	.	.
=178	=178	=178	=178	=178	=178
!!linebreak:original
iv7	E	12e\L	2b\	2dd\	2.gg\
.	E	12E\	.	.	.
.	E	12F#\J	.	.	.
VI	G	12G\L	.	.	.
.	G	12A\	.	.	.
.	G	12B\J	.	.	.
V7/iii	A	12A\L	8ee\L	[4cc#\	.
.	A	12B\	.	.	.
.	A	.	8cc#\J	.	.
.	A	12c#\J	.	.	.
=179	=179	=179	=179	=179	=179
III	D	12d\L	2a\	2cc#\]	2.ff#\
.	D	12D\	.	.	.
.	D	12E\J	.	.	.
v	F#	12F#\L	.	.	.
.	F#	12G\	.	.	.
.	F#	12A\J	.	.	.
i7	B	12G\L	8dd\L	[4b\	.
.	B	12A\	.	.	.
.	B	.	8b\J	.	.
.	B	12B\J	.	.	.
=180	=180	=180	=180	=180	=180
V7b/iii	A	12c#\L	2g\	2b\]	2.ee\
.	E	12C#\	.	.	.
.	E	12D\J	.	.	.
iv	E	12E\L	.	.	.
.	E	12F#\	.	.	.
.	E	12G\J	.	.	.
V7	F#	12F#\L	4f#\	12a#\L	.
.	F#	12G#\	.	12b\	.
.	F#	12A#\J	.	12cc#\J	.
=181	=181	=181	=181	=181	=181
i	B	4B\	[2.B/	[2.b\	4dd\
.	B	4BB/	.	.	4bb\
.	B	4C#/	.	.	4aa#\
=182	=182	=182	=182	=182	=182
V7b/IV	B	4D#\	2.B/_	2.b\_	4aa\
IV	E	2E\	.	.	4gg#\
iv	E	.	.	.	4ggn\
=183	=183	=183	=183	=183	=183
!!linebreak:original
ic	B	4F#\	2.B/]	2.b\]	4ff#\
ivb	E	4G\	.	.	4ee#\
IVb	E	4G#\	.	.	4een\
=184	=184	=184	=184	=184	=184
V7b	F#	4A#\	[2.f#\	4cc#\	4ee\
i	B	4B\	.	4f#'/	4dd\
Vc	F#	4c#\	.	4f#'/	4cc#\
=185	=185	=185	=185	=185	=185
ib	B	4d\	4f#\]	4f#/	4b'\
V7b/IV	B	4d#'\	4f#'\	4a'/	4b'\
.	B	4d#'\	4f#'\	4a'/	4b'\
=186	=186	=186	=186	=186	=186
iv	E	4e\	4g'\	4g/	4b\
V7/VII	E	4e#'\	4g#'\	4b'\	4dd'\
.	E	4e#'\	4g#'\	4b'\	4dd'\
=187	=187	=187	=187	=187	=187
ic	B	2f#\	2f#\	2b\	2dd\
V7	F#	4F#\	4e\	4a#/	12ee\L
.	F#	.	.	.	12cc#\
.	F#	.	.	.	12a#\J
=188	=188	=188	=188	=188	=188
i	B	4B\	4d\	4b'\	4b'\
.	B	4r	4r	4b\	4dd\
.	B	4r	4r	4bb\	4ddd\
=189	=189	=189	=189	=189	=189
Vc	F#	4r	4r	2cc#\	2aa#\
V7d	F#	4e\	4g\	.	.
ib	B	4d\	4f#\	4dd\	4bb\
=190	=190	=190	=190	=190	=190
.	B	4D\	4F#/	4r	4r
.	B	4r	4r	4b\	4dd\
.	B	4r	4r	4bb\	4ddd\
=191	=191	=191	=191	=191	=191
!!pagebreak:original
*Am:	*Am:	*	*	*	*
Vc	E	4r	4r	2b\	2gg#\
V7d	E	4d\	4fn\	.	.
ib	A	4cn\	4e\	4ccn\	4aa\
=192	=192	=192	=192	=192	=192
.	A	4Cn/	4E/	4r	4r
.	A	4r	4r	4a/	4ccn\
.	A	4r	4r	4aa\	4cccn\
=193	=193	=193	=193	=193	=193
*G:	*G:	*	*	*	*
Vc	D	4r	4r	2a/	2ff#\
V7d	D	4cn\	4e-\	.	.
Ib	G	4B\	4d\	4b\	4gg\
=194	=194	=194	=194	=194	=194
.	G	4r	4r	4gg'\	4bb'\
.	G	4GG/	4B/	4r	4r
.	G	4G\	4b\	4r	4r
=195	=195	=195	=195	=195	=195
V	D	2D#\	2f#\	4r	4r
V7	D	.	.	4ccn\	4aa\
vi	E	4E\	4g\	4b\	4gg\
=196	=196	=196	=196	=196	=196
.	E	4r	4r	4gg'\	4eee'\
.	E	4EE/	4G/	4r	4r
.	E	4E\	4g\	4r	4r
=197	=197	=197	=197	=197	=197
IIb	A	2C#/	2e\	4r	4r
V7b/V	A	.	.	4b-\	4gg\
V	D	4D\	4f#\	4a/	4ff#\
=198	=198	=198	=198	=198	=198
.	D	4r	4r	4ff#'\	4ddd'\
.	D	4D\	4F#/	4r	4r
.	D	4d\	4f#\	4r	4r
=199	=199	=199	=199	=199	=199
II	A	2A#\	2c#\	4r	4r
V7/V	A	.	.	4g/	4ee\
iii	B	4B\	4d\	4f#/	4dd\
=200	=200	=200	=200	=200	=200
!!linebreak:original
VIb	E	2G#\	2B/	4r	4r
V7b/ii	E	.	.	4fn/	4dd\
ii	A	4A\	4cn\	4e/	4ccn\
=201	=201	=201	=201	=201	=201
Vb	D	2F#\	2A/	4r	4r
V7b	D	.	.	4d'/	4ccn\
I	G	4G\	4B/	4d'/	4b\
=202	=202	=202	=202	=202	=202
vi	E	2E\	2G/	4r	4r
ii7c	A	.	.	4cn'/	4b\
V7b	D	4F#\	4A/	4c'/	4a/
=203	=203	=203	=203	=203	=203
IIIb	B	2D#\	2F#/	4r	4r
V7b/vi	B	.	.	4B'/	4a/
vi	E	4E\	8G/L	4B'/	4g/
.	E	.	8E/J	.	.
=204	=204	=204	=204	=204	=204
III	B	4BB/	4D#/	4B/	4f#/
.	B	4BB'/	4B'/	4B'/	4B'/
.	B	4BB'/	4B'/	4B'/	4B'/
=205	=205	=205	=205	=205	=205
.	B	4BB'/	4B'/	4B'/	4B'/
vi	r	4r	4r	4r	4r
.	E	4r	4r	4r	4r
=206	=206	=206	=206	=206	=206
.	r	2.r	2.r	2.r	2.r
=207	=207	=207	=207	=207	=207
I	G	4GG'/	4G'/	4G'/	4G'/
.	G	4GG'/	4G'/	4G'/	4G'/
.	G	4GG'/	4G'/	4G'/	4G'/
=208	=208	=208	=208	=208	=208
.	G	[2.GG/	2.G/	2.G/	2.G/
=209	=209	=209	=209	=209	=209
IVc	C	2.GG/_	2.F#/	2.A/	2.cn/
=210	=210	=210	=210	=210	=210
!!linebreak:original
I	G	2.GG/]	[2.G/	4G/	4B/
IVc	C	.	.	4cn/	4e/
I	G	.	.	4B/	4d/
=211	=211	=211	=211	=211	=211
.	G	4GG/	4G/]	2B/	2g/
.	G	4GG'/	4G'/	.	.
.	G	4GG'/	4G'/	16d/LL	16f#/LL
.	G	.	.	16cn/	16e/
.	G	.	.	16B/	16d/
.	G	.	.	16c/JJ	16e/JJ
=212	=212	=212	=212	=212	=212
.	G	4GG'/	4G'/	4B/	4d/
.	G	4r	4r	4r	4r
.	r	4r	4r	4r	4r
=213	=213	=213	=213	=213	=213
.	G	4g'\	4g'\	4dd'\	4bb'\
.	G	4g'\	4g'\	4dd'\	4bb'\
.	G	4g'\	4g'\	4dd'\	4bb'\
=214	=214	=214	=214	=214	=214
*D:	*D:	*	*	*	*
V7c/ii	B	2.f#\	[2.b\	2.dd#\	2aa\
.	B	.	.	.	8bb\L
.	B	.	.	.	8ff#\J
=215	=215	=215	=215	=215	=215
ii	E	4e\	4b\]	4ee\	4gg\
V7b	A	4c#'\	4a'\	4ee'\	4gg'\
.	A	4c#'\	4a'\	4ee'\	4gg'\
=216	=216	=216	=216	=216	=216
.	A	4c#'\	4a'\	4ee'\	4gg'\
.	A	4r	4r	4r	4r
.	r	4r	4r	4r	4r
=217	=217	=217	=217	=217	=217
I	D	4DD'/	4D'/	4d'/	4d'/
.	D	4DD'/	4D'/	4d'/	4d'/
.	D	4DD'/	4D'/	4d'/	4d'/
=218	=218	=218	=218	=218	=218
!!pagebreak:original
.	D	[2.DD/	2.D/	2.d/	2.d/
=219	=219	=219	=219	=219	=219
.	D	2.DD/_	[2.A/	2.c#/	2.g/
=220	=220	=220	=220	=220	=220
.	D	2.DD/]	4A/]	4d/	4f#/
IVc	G	.	4C#/	4g/	4b\
I	D	.	4D/	4f#/	4a/
=221	=221	=221	=221	=221	=221
.	D	4DD'/	4D'/	2f#/	2dd\
.	D	4DD'/	4D'/	.	.
.	D	4DD'/	4D'/	16a/LL	16cc#\LL
.	D	.	.	16g/	16b\
.	D	.	.	16f#/	16a\
.	D	.	.	16g/JJ	16b\JJ
=222	=222	=222	=222	=222	=222
.	D	4DD/	4D/	4f#/	4a/
.	D	4r	4r	4r	4r
.	D	4r	4r	4r	4r
=223	=223	=223	=223	=223	=223
ii	E	4EE'/	4E'/	4e'/	4e'/
.	E	4EE'/	4E'/	4e'/	4e'/
.	E	4EE'/	4E'/	4e'/	4e'/
=224	=224	=224	=224	=224	=224
.	E	2EE/	[2.E/	2e/	4e/
.	E	.	.	.	4g/
ii7d	E	4DD/	.	[4g/	4b\
=225	=225	=225	=225	=225	=225
V7b	A	2CC#/	4E/]	4g/]	[2.a/
.	A	.	4A'/	4e/	.
I	D	4DD/	4A'/	[4f#/	.
=226	=226	=226	=226	=226	=226
IV	G	2.GG/	2.B/	4f#/]	4a/]
.	G	.	.	4g/	4b\
iib	E	.	.	4e/	4g/
=227	=227	=227	=227	=227	=227
!!linebreak:original
Ic	D	2.AA/	2A/	2d/	2f#/
V7	A	.	4G/	4c#/	8g/L
.	A	.	.	.	8e/J
=228	=228	=228	=228	=228	=228
vi	B	4BB/	4F#/	4d/	4d/
V	r	4r	4r	4r	4r
.	A	4r	4r	4r	4r
=229	=229	=229	=229	=229	=229
Chr	C	4CCn'/	4Cn'/	4cn'/	4cn'/
.	C	4CC'/	4C'/	4c'/	4c'/
.	C	4CC'/	4C'/	4c'/	4c'/
=230	=230	=230	=230	=230	=230
V7b/IV	D	2FF#/	2.D/	2A/	2cn/
IV	G	4GG/	.	4G/	4B/
=231	=231	=231	=231	=231	=231
ii	E	4EE'/	4E'/	4B'/	4g'/
.	E	4EE'/	4E'/	4B'/	4g'/
.	E	4EE'/	4E'/	4B'/	4g'/
=232	=232	=232	=232	=232	=232
VIb	B	4DD#/	4D#/	2B/	4f#/
ii	E	4EE/	4E/	.	4g/
V7b	A	4CC#/	4C#/	4g/	4b\
=233	=233	=233	=233	=233	=233
I	D	4DD/	4D/	4f#/	4a/
iib	E	4GG/	4G/	4e/	4g/
I	D	4GG#/	4G#/	4d/	4f#/
=234	=234	=234	=234	=234	=234
V	A	4AA/	4A/	4c#/	4e/
.	A	4r	4r	4r	4a/
.	A	4r	4a\	4r	4a/
=235	=235	=235	=235	=235	=235
!!linebreak:original
.	A	2.r	[2.a\	2.r	12a\L
.	A	.	.	.	12cc#\
.	A	.	.	.	12dd\J
.	A	.	.	.	12ee\L
.	A	.	.	.	12dd\
.	A	.	.	.	12cc#\J
I	D	.	.	.	12dd\L
.	D	.	.	.	12ee\
.	D	.	.	.	12ff#\J
=236	=236	=236	=236	=236	=236
V7	A	12A\L	2.a\]	2ee\	2gg\
.	A	12c#\	.	.	.
.	A	12d\J	.	.	.
ii7	E	12e\L	.	.	.
.	E	12d\	.	.	.
.	E	12c#\J	.	.	.
I	D	12d\L	.	4dd\	4ff#\
.	D	12e\	.	.	.
.	D	12f#\J	.	.	.
=237	=237	=237	=237	=237	=237
V7	A	2g\	[2.A/	2.r	12A/L
.	A	.	.	.	12c#/
.	G	.	.	.	12d/J
IV	G	.	.	.	12e/L
.	G	.	.	.	12d/
.	G	.	.	.	12c#/J
I	D	4f#\	.	.	12d/L
.	D	.	.	.	12e/
.	D	.	.	.	12f#/J
=238	=238	=238	=238	=238	=238
V7	A	12AA/L	2.A/]	2e/	2g/
.	A	12C#/	.	.	.
.	A	12D/J	.	.	.
ii7	E	12E\L	.	.	.
.	E	12D\	.	.	.
.	E	12C#\J	.	.	.
I	D	12D\L	.	4f#/	4f#/
.	D	12E\	.	.	.
.	D	12F#\J	.	.	.
=239	=239	=239	=239	=239	=239
!!pagebreak:original
IV	G	[2.G\	12B\L	4f#/	2.b\
.	G	.	12c#\	.	.
.	G	.	12d\J	.	.
iib	E	.	12e\L	4e/	.
.	E	.	12g\	.	.
.	E	.	12f#\J	.	.
ii7b	E	.	12e\L	4e/	.
.	E	.	12f#\	.	.
.	E	.	12d\J	.	.
=240	=240	=240	=240	=240	=240
V7d	A	2.G\]	2c#\	2.e/	12a\L
.	A	.	.	.	12cc#\
.	A	.	.	.	12b\J
.	A	.	.	.	12a\L
.	A	.	.	.	12cc#\
.	A	.	.	.	12dd\J
.	A	.	[4A/	.	12ee\L
.	A	.	.	.	12ff#\
.	A	.	.	.	12gg\J
=241	=241	=241	=241	=241	=241
Ib	D	2.F#\	4A/]	4d/	[2.aa\
.	D	.	4d\	4f#/	.
.	D	.	4d\	4a/	.
=242	=242	=242	=242	=242	=242
IV	G	[2.G\	2d\	[2.b\	4aa\]
.	G	.	.	.	4gg\
.	G	.	4d#\	.	4ff#\
=243	=243	=243	=243	=243	=243
iib	E	4G\]	[2.e\	4b\]	[2.gg\
V7	A	4F#\	.	4a/	.
ii	E	4E\	.	4g/	.
=244	=244	=244	=244	=244	=244
Ib	D	[2.F#\	12e\L]	[2.a/	12gg\L]
.	D	.	12f#\	.	12aa\
.	D	.	12e\J	.	12gg\J
.	D	.	12d\L	.	12ff#\L
.	D	.	12e\	.	12gg\
.	D	.	12d\J	.	12ff#\J
.	D	.	12c#\L	.	12ee\L
.	D	.	12d\	.	12ff#\
.	D	.	12e\J	.	12gg\J
=245	=245	=245	=245	=245	=245
!!linebreak:original
.	D	12F#\L]	[2.d\	12a/L]	[2.ff#\
.	D	12G\	.	12b/	.
.	D	12F#\J	.	12a/J	.
.	D	12E\L	.	12g/L	.
.	D	12F#\	.	12a/	.
.	D	12E\J	.	12g/J	.
.	D	12D\L	.	12f#/L	.
.	D	12E\	.	12g/	.
.	D	12F#\J	.	12a/J	.
=246	=246	=246	=246	=246	=246
ii7	E	[2.E\	4d\]	[2.g/	12ff#\L]
.	E	.	.	.	12ee\
.	E	.	.	.	12ff#\J
V7c	A	.	4c#\	.	12gg\L
.	A	.	.	.	12ff#\
.	A	.	.	.	12ee\J
.	A	.	4c#\	.	12dd\L
.	A	.	.	.	12cc#\
.	A	.	.	.	12b\J
=247	=247	=247	=247	=247	=247
.	A	2.E\_	[2.c#\	2.g/_	4a/
.	A	.	.	.	4a'/
.	A	.	.	.	4a'/
=248	=248	=248	=248	=248	=248
.	A	2.E\]	2.c#\]	2.g/]	[2.a/
=249	=249	=249	=249	=249	=249
Ib	D	2.F#\	4d\	4f#/	4a/]
.	D	.	4d'\	4dd'\	4ddd\
.	D	.	4d'\	4dd'\	4ccc#\
=250	=250	=250	=250	=250	=250
IV	G	4G\	2.dd\	2.dd\	4ccc#\
.	G	4g\	.	.	4bb\
Ib	D	4f#\	.	.	[4aa\
=251	=251	=251	=251	=251	=251
V7c	A	2e\	2g\	2cc#\	4aa\]
ii	E	.	.	.	12bb\L
.	E	.	.	.	12gg\
.	E	.	.	.	12ee\J
I	D	4d\	4f#\	4dd\	[4ff#\
=252	=252	=252	=252	=252	=252
!!linebreak:original
IV	G	2G\	2g\	2b\	4ff#\]
iib	E	.	.	.	4ee\
V7	A	4A\	4e\	4g/	12gg\L
.	A	.	.	.	12ee\
.	A	.	.	.	12cc#\J
=253	=253	=253	=253	=253	=253
I	D	4D\	4d\	4f#/	4dd\
V	r	4r	4r	4r	4r
.	A	4r	4r	4r	4r
=254	=254	=254	=254	=254	=254
*Em:	*Em:	*	*	*	*
Vb	B	4D#'\	4d#'\	4d#'/	4d#'/
.	B	4D#'\	4d#'\	4d#'/	4d#'/
.	B	4D#'\	4d#'\	4d#'/	4d#'/
=255	=255	=255	=255	=255	=255
.	B	4D#\	4d#\	4d#/	4d#/
i	E	4E\	4e\	4e/	4e/
III	G	4GG/	4G/	[4g/	[4b\
=256	=256	=256	=256	=256	=256
*D:	*D:	*	*	*	*
V7	A	2.AA/	2A/	4g/]	4b\]
.	A	.	.	4f#/	4a/
.	A	.	4G/	4e/	4c#/
=257	=257	=257	=257	=257	=257
I	D	4D'\	4F#'/	4d'/	4d'/
.	D	4D'\	4d'\	4d'/	4d'/
.	D	4D'\	4d'\	4d'/	4d'/
=258	=258	=258	=258	=258	=258
.	D	4.D\	4.d\	4.d/	4.d/
.	D	16E\LL	16e\LL	16e/LL	16e/LL
.	D	16F#\JJ	16f#\JJ	16f#/JJ	16f#/JJ
V7d	A	16G\LL	16g\LL	16g/LL	16g/LL
.	A	16A\	16a\	16a/	16a/
.	G	16B\	16b\	16b/	16b/
.	G	16c#\JJ	16cc#\JJ	16cc#/JJ	16cc#/JJ
=259	=259	=259	=259	=259	=259
I	D	4d'\	4dd'\	4dd'\	4dd'\
.	D	4F#'\	4dd'\	4a'/	4.ddd\
.	D	4r	4r	4r	.
.	A	.	.	.	8ccc#\
=260	=260	=260	=260	=260	=260
!!pagebreak:original
Vb	A	4r	4r	4r	4ccc#'\
V7b/IV	D	2F#\	2d#\	2a/	2cccn\
=261	=261	=261	=261	=261	=261
iib	E	4G\	4e\	4g/	12bb\L
.	E	.	.	.	12aa\
.	E	.	.	.	12gg\J
.	E	4r	4r	4r	12ff#\L
.	E	.	.	.	12ee\
.	E	.	.	.	12gg\J
I	D	4r	4r	4r	12ff#\L
.	D	.	.	.	12ee\
.	D	.	.	.	12dd\J
=262	=262	=262	=262	=262	=262
V7d	A	4G\	4A/	4e/	12dd\L
.	A	.	.	.	12cc#\
.	A	.	.	.	12dd\J
.	A	4r	4r	4r	12ee\L
.	A	.	.	.	12dd\
.	A	.	.	.	12cc#\J
.	A	4r	4r	4r	12b\L
.	A	.	.	.	12a\
.	A	.	.	.	12ee\J
=263	=263	=263	=263	=263	=263
.	A	4G'\	4A'/	4e'/	12cc#\L
.	A	.	.	.	12a\
.	A	.	.	.	12ee\J
.	A	4G'\	4A'/	4e'/	12cc#\L
.	A	.	.	.	12a\
.	A	.	.	.	12ee\J
.	A	4G'\	4A'/	8.e/L	12cc#\L
.	A	.	.	.	12a\
.	A	.	.	.	12ee\J
.	A	.	.	16c#/Jk	.
=264	=264	=264	=264	=264	=264
Ib	D	4F#\	4A/	4d/	12dd\L
.	D	.	.	.	12ddd\
.	D	.	.	.	12ccc#\J
V7d	A	4r	4r	4r	12bb\L
.	A	.	.	.	12aa\
.	A	.	.	.	12gg\J
I	D	4r	4r	4r	12ff#\L
.	D	.	.	.	12ee\
.	D	.	.	.	12dd\J
=265	=265	=265	=265	=265	=265
!!linebreak:original
V7d	A	4G'\	4A'/	4e'/	12cc#\L
.	A	.	.	.	12a\
.	A	.	.	.	12ee\J
.	A	4G'\	4A'/	4e'/	12cc#\L
.	A	.	.	.	12a\
.	A	.	.	.	12ee\J
.	A	4G'\	4A'/	8.e/L	12cc#\L
.	A	.	.	.	12a\
.	A	.	.	.	12ee\J
.	A	.	.	16c#/Jk	.
=266	=266	=266	=266	=266	=266
Ib	D	4F#\	4A/	4d/	12dd\L
.	D	.	.	.	12ddd\
.	D	.	.	.	12ccc#\J
V7d	A	4r	4r	4r	12bb\L
.	A	.	.	.	12aa\
.	A	.	.	.	12gg\J
I	D	4r	4r	4r	12ff#\L
.	D	.	.	.	12ee\
.	D	.	.	.	12dd\J
=267	=267	=267	=267	=267	=267
V7d	A	4G'\	4A'/	4e'/	12cc#\L
.	A	.	.	.	12a\
.	A	.	.	.	12ee\J
.	A	4G'\	4A'/	4e'/	12cc#\L
.	A	.	.	.	12a\
.	A	.	.	.	12ee\J
.	A	4G'\	4A'/	8.e/L	12cc#\L
.	A	.	.	.	12a\
.	A	.	.	.	12ee\J
.	A	.	.	16c#/Jk	.
=268	=268	=268	=268	=268	=268
I	D	12F#\L	12d\L	12d/L	12dd/L
.	D	12D\	12d\	12d/	12d/
.	E	12E\J	12e\J	12e/J	12e/J
.	D	12F#\L	12f#\L	12f#/L	12f#/L
.	D	12D\	12d\	12d/	12d/
.	D	12F#\J	12f#\J	12f#/J	12f#/J
.	D	12A\L	12a\L	12a/L	12a/L
.	D	12F#\	12f#\	12f#/	12f#/
.	D	12A\J	12a\J	12a/J	12a/J
=269	=269	=269	=269	=269	=269
*G:	*G:	*	*	*	*
IV	C	4cn'\	4ccn'\	4ccn'\	4ccn'\
V7d	r	4r	4r	4r	4r
.	r	4r	4r	4r	4r
=270	=270	=270	=270	=270	=270
!!linebreak:original
I	G	4GG/	4G/	4r	4r
.	G	4r	4r	4g/	4b\
.	G	4r	4r	4gg\	4bb\
=271	=271	=271	=271	=271	=271
V	D	2.r	2.r	2dd#\	2ff#\
vi	E	.	.	4ee\	4gg\
=272	=272	=272	=272	=272	=272
Vc	D	2.A\	2f#\	2a/	2dd\
V7/V	A	.	4e\	4g/	8ee\L
.	A	.	.	.	8cc#\J
=273	=273	=273	=273	=273	=273
V	D	4D\	4d\	4f#/	4dd\
.	D	4r	4r	4dd\	4ff#\
IVb	C	4r	4r	4ee\	4gg\
=274	=274	=274	=274	=274	=274
Vb	D	2.r	2.r	4ff#\	4aa\
Ib	G	.	.	4bb\	4ddd\
ii	A	.	.	4aa\	4cccn\
=275	=275	=275	=275	=275	=275
I	G	4r	4r	4gg\	4bb\
.	G	4G\	4B/	4r	4r
.	G	4g\	4b\	4r	4r
=276	=276	=276	=276	=276	=276
IIIb	B	2d#\	2f#\	4r	4r
V7	D	.	.	4ccn\	4aa\
vi	E	4e\	4g\	4b\	4gg\
=277	=277	=277	=277	=277	=277
*D:	*D:	*	*	*	*
Vb	A	2c#\	2e\	4r	4r
V7b	A	.	.	4b-\	4gg\
I	D	4d\	4f#\	8a\L	4ff#\
.	D	.	.	8ff#\J	.
=278	=278	=278	=278	=278	=278
iib	E	[2.G\	4d#\	4ff#\	[2.bb\
.	E	.	4e\	4ee\	.
ii7b	E	.	4e\	4dd\	.
=279	=279	=279	=279	=279	=279
!!pagebreak:original
V7d	A	2.G\_	[2.e\	[2.cc#\	8bb\L]
.	A	.	.	.	8aa\J
.	A	.	.	.	8gg#\L
.	A	.	.	.	8aa\J
.	A	.	.	.	8gg#\L
.	A	.	.	.	8aa\J
=280	=280	=280	=280	=280	=280
.	A	2.G\]	2.e\]	2.cc#\]	[2.aa\
=281	=281	=281	=281	=281	=281
Ib	D	[2.F#\	[2.d\	[2.dd\	4aa\]
.	D	.	.	.	4ddd\
.	D	.	.	.	4ccc#\
=282	=282	=282	=282	=282	=282
V7b/IV	D	4F#\]	2.d\_	2.dd\_	4cccn\
IV	G	2G\	.	.	4bb\
iv	G	.	.	.	4bb-\
=283	=283	=283	=283	=283	=283
Ic	D	4A\	2.d\]	2.dd\]	4aa\
IVb	G	4B\	.	.	4gg#\
ivb	G	4B-\	.	.	4ggn\
=284	=284	=284	=284	=284	=284
Ic	D	2.A\	2d\	2a/	2ff#\
V7	A	.	4e\	4g/	12gg\L
.	A	.	.	.	12ee\
.	A	.	.	.	12cc#\J
=285	=285	=285	=285	=285	=285
I	D	4D\	4d\	4f#/	4dd\
IV	G	4r	4r	12r	12r
.	G	.	.	12gg\L	12bb\L
.	A	.	.	12aa\J	12ccc#\J
.	G	4r	4r	12bb\L	12ddd\L
.	G	.	.	12aa\	12ccc#\
.	G	.	.	12gg\J	12bb\J
=286	=286	=286	=286	=286	=286
!!linebreak:original
Ib	D	4r	4r	4ff#'\	4aa'\
.	D	12r	12r	4r	4r
.	D	12e\L	12g\L	.	.
.	D	12f#\J	12a\J	.	.
IV	G	12g\L	12b\L	4r	4r
.	A	12f#\	12a\	.	.
.	A	12e\J	12g\J	.	.
=287	=287	=287	=287	=287	=287
I	D	4d'\	4f#'\	4r	4r
IV	r	12r	12r	12r	12r
.	G	12E\L	12g\L	12gg\L	12bb\L
.	D	12F#\J	12a\J	12ff#\J	12aa\J
ii	E	12G\L	12b\L	12ee\L	12gg\L
.	D	12F#\	12a\	12ff#\	12aa\
.	E	12E\J	12g\J	12gg\J	12bb\J
=288	=288	=288	=288	=288	=288
Ic	D	4A'\	4a'\	4dd'\	4ff#'\
.	r	4r	4r	4r	4r
V7	A	4AA/	4g\	4cc#\	16ff#\LL
.	A	.	.	.	16ee\
.	A	.	.	.	16dd\
.	A	.	.	.	16ee\JJ
=289	=289	=289	=289	=289	=289
I	D	4D'\	4f#'\	4dd'\	4dd'\
.	D	12r	12r	4r	4r
.	D	12f#\L	12a\L	.	.
.	C	12e\J	12g\J	.	.
.	D	12d\L	12f#\L	4r	4r
.	D	12e\	12g\	.	.
.	D	12f#\J	12a\J	.	.
=290	=290	=290	=290	=290	=290
IV	G	4g'\	4b'\	4r	4r
V	A	4r	4r	12r	12r
.	A	.	.	12cc#\L	12ee\L
.	G	.	.	12b\J	12dd\J
.	A	4r	4r	12a\L	12cc#\L
.	A	.	.	12b\	12dd\
.	A	.	.	12cc#\J	12ee\J
=291	=291	=291	=291	=291	=291
!!linebreak:original
I	D	4r	4r	4dd'\	4ff#'\
IV	r	12r	12r	12r	12r
.	G	12G\L	12b\L	12ee\L	12gg\L
.	D	12F#\J	12a\J	12ff#\J	12aa\J
ii	E	12E\L	12g\L	12gg\L	12bb\L
.	D	12F#\	12a\	12ff#\	12aa\
.	G	12G\J	12b\J	12ee\J	12gg\J
=292	=292	=292	=292	=292	=292
Ic	D	4A'\	4a'\	4dd'\	4ff#'\
.	D	4r	4r	4r	4r
V7	A	4AA/	4g\	4cc#\	16ff#\LL
.	A	.	.	.	16ee\
.	A	.	.	.	16dd\
.	A	.	.	.	16ee\JJ
=293	=293	=293	=293	=293	=293
I	D	4D\	4f#'\	4dd'\	4dd'\
.	D	4r	4r	4r	4dd'\
.	D	16A\LL	16cc#\LL	4r	4dd'\
.	D	16G\	16b\	.	.
.	D	16F#\	16a\	.	.
.	D	16G\JJ	16b\JJ	.	.
=294	=294	=294	=294	=294	=294
.	D	4F#\	4a\	4r	[2.dd\
.	D	4r	4r	4d/	.
.	D	16F#\LL	16a\LL	4r	.
.	D	16E\	16g\	.	.
.	D	16D\	16f#\	.	.
.	D	16E\JJ	16g\JJ	.	.
=295	=295	=295	=295	=295	=295
.	D	4D\	4f#\	4r	2.dd\_
.	D	4r	4r	4d/	.
V7c/IV	D	4r	16ccn\LL	16ee\LL	.
.	D	.	16b\	16dd\	.
.	D	.	16a\	16ccn\	.
.	D	.	16b\JJ	16dd\JJ	.
=296	=296	=296	=296	=296	=296
!!pagebreak:original
v	A	4r	4a\	4ccn\	2.dd\_
I	D	4D\	4f#\	4a/	.
V7b/IV	D	4r	16a\LL	16cc\LL	.
.	D	.	16g\	16b\	.
.	D	.	16f#\	16a\	.
.	D	.	16g\JJ	16b\JJ	.
=297	=297	=297	=297	=297	=297
.	D	4r	4f#\	4a/	4dd\]
.	D	4D'\	4d'\	4d'/	4d'/
.	D	4D'\	4d'\	4d'/	4d'/
=298	=298	=298	=298	=298	=298
.	D	2D\	2d\	2d/	2d/
Chr	C	4Cn/	4cn\	4cn/	4cn/
=299:|!	=299:|!	=299:|!	=299:|!	=299:|!	=299:|!
I	D	4D\	4f#'\	4dd'\	4dd\
.	D	4r	4r	4r	4dd'\
.	D	16A\LL	16cc#\LL	4r	4dd'\
.	D	16G\	16b\	.	.
.	D	16F#\	16a\	.	.
.	D	16G\JJ	16b\JJ	.	.
=300	=300	=300	=300	=300	=300
.	D	4F#\	4a\	4r	[2.dd\
.	D	4r	4r	4d/	.
.	D	16F#\LL	16a\LL	4r	.
.	D	16E\	16g\	.	.
.	D	16D\	16f#\	.	.
.	D	16E\JJ	16g\JJ	.	.
=301	=301	=301	=301	=301	=301
.	D	4D\	4f#\	4r	4dd\]
.	D	4r	4r	4d/	4d/
.	D	4r	4r	16a/LL	16cc#\LL
.	D	.	.	16g/	16b\
.	D	.	.	16f#/	16a\
.	D	.	.	16g/JJ	16b\JJ
=302	=302	=302	=302	=302	=302
!!linebreak:original
.	D	4r	4r	4f#/	4a/
.	D	4DD/	4D/	4r	4r
.	D	4r	4r	16f#/LL	16a/LL
.	D	.	.	16e/	16g/
.	D	.	.	16d/	16f#/
.	D	.	.	16e/JJ	16g/JJ
=303	=303	=303	=303	=303	=303
.	D	4r	4r	4d/	4f#/
.	D	4DD/	4r	4r	4r
.	D	4r	16A/LL	4r	16f#/LL
.	D	.	16G/	.	16e/
.	D	.	16F#/	.	16d/
.	D	.	16G/JJ	.	16e/JJ
=304	=304	=304	=304	=304	=304
.	D	4r	4F#/	4d/	4d/
.	D	4DD'/	4F#'/	4d'/	4d'/
.	D	4DD'/	4F#'/	4d'/	4d'/
=305	=305	=305	=305	=305	=305
.	D	4DD/	4F#/	4d/	4d/
.	r	4r	4r	4r	4r
.	r	4r	4r	4r	4r
==	==	==	==	==	==
*-	*-	*-	*-	*-	*-
